X:1
T:Lame Tame Crane
M:4/4
L:1/4
K:C
 G| c c/2c/2 c B| c2 z d| e e/2f/2 g g/2f/2| e3 z| g g/2f/2 e e/2d/2|\
 c e g G| c E/2F/2 G G| c2 z G|:|
